static/img/svg/heading.svg

<svg xmlns="http://www.w3.org/2000/svg" width="24" height="24" viewBox="0 0 24 24"><path d="M6 4v16h2v-7h8v7h2V4h-2v7H8V4z"/></svg>

<svg xmlns="http://www.w3.org/2000/svg" width="24" height="24" viewBox="0 0 24 24"><path d="M6 4L6 20 8 20 8 13 16 13 16 20 18 20 18 4 16 4 16 11 8 11 8 4z"/></svg>
